X:174
U: ~ = !turn!
%%topmargin 3cm
T:Richard Brennan's Favorite
B:Traditional Irish Fiddle Tunes. Randy Miller and Jack Perron.
Z:Transcribed by Ralph Palmer
S:Michael Coleman
R:Jig
L:1/8
M:6/8
K:D
A,2 F FED | FAF ~F3 | DFA dAF | A,CE A,CE |
F3 FED | FAF ~F3 | DFA dAF | [1 DCE DCB, :| [2 DCE D3 ||
|:fed edc | dcB AFA | fed edc | dfb a2 g |
fed edc | dcB AFA | DFA dAF | DCE D3 :|]
